X: 21411
T: CAROLAN'S CAP
O: Irish air.
Q: "Moderate."
%R: march, reel
B: W. Hamilton "Universal Tune-Book" Vol. 2 Glasgow 1846 p.141 #1
S: http://s3-eu-west-1.amazonaws.com/itma.dl.printmaterial/book_pdfs/hamiltonvol2web.pdf
Z: 2016 John Chambers <jc:trillian.mit.edu>
M: 2/4
L: 1/32
K: D
% - - - - - - - - - - - - - - - - - - - - - - - - -
A2 |\
{G}F2(ED) (F2A2) | d3(ef2)e2 | (d2B2)(A2F2) | E4 E2(AG) |\
{G}F2(ED) (F2A2) | d2d2e2f2 | d4 (ed)B2 | A4 A2 |]
de |\
(f2a2)(a2b2) | (a2f2) (afed) | (f2a2b2a2) | (f2e2) e2(fa) |\
b2(af) (af)(ed) | (edef) (a2fe) | d3(c/d/) (ed)B2 | A4 A2 |]
% - - - - - - - - - - - - - - - - - - - - - - - - -

%%sep 1 1 500
%%sep 1 1 500

